X:1
T:The Man, who went out for beer-Danish  "CCPB Sep-1995"
M:6/8
L:1/8
Q:80
C:Trad.
S:
K:HP
{g}A |: \
{Gdc}d2f{ag}afd | \
{gcd}c2e{gf}g2c |
{Gdc}d2f{ag}afd | \
{g}A3{GAG}A3 :| \
{g}A[ |
{g}e2{GdG}e{gef}ede | \
{g}fAf{gfg}f2{f}f | \
{g}e3/2f/2{g}e{ag}age |
{Gdc}d{g}fa{Gdc}d{g}fa | \
{g}a2B{gBG}B2g | \
{afg}f2A{GAG}A2f |
{g}e3/2f/2{g}e{g}AB{GdG}c | \
{Gdc}d3{gdc}d2|]
